Newaita-dark/emblems/48/emblem-shared.svg

<svg height="48" viewBox="0 0 48 48" width="48" xmlns="http://www.w3.org/2000/svg"><path d="m1440.020041 275.091855c-88.652956 0-159.984731 71.331774-159.984731 159.98473 0 2.991841 0 5.983681.157466 8.975522l-701.350384 405.000715c-27.241495-21.257813-61.568927-34.012501-98.8882-34.012501-88.652956 0-159.984731 71.489239-159.984731 160.142196 0 88.652956 71.331775 159.98473 159.984731 159.98473 26.139237 0 50.861287-6.298611 72.591497-17.321181l729.221739 421.062175c11.337501 77.315455 77.630387 136.207472 158.252613 136.207472 88.652956 0 159.984731-71.331775 159.984731-159.984731s-71.331775-159.98473-159.984731-159.98473c-37.161808 0-71.174309 12.439757-98.258339 33.540106l-688.910626-397.599848 715.207329-412.87398c21.572744 10.865105 45.979864 16.848786 71.961636 16.848786 88.652956 0 159.984731-71.331775 159.984731-159.984731s-71.331775-159.98473-159.984731-159.98473zm0 0" fill="none" stroke="#424242" stroke-linecap="round" stroke-linejoin="round" stroke-width="309.921265" transform="scale(.0248071)"/><path d="m35.722656 6.824219c-2.199218 0-3.96875 1.769531-3.96875 3.96875 0 .074219 0 .148437.003906.222656l-17.398437 10.046875c-.675781-.527344-1.527344-.84375-2.453125-.84375-2.199219 0-3.96875 1.773438-3.96875 3.972656 0 2.199219 1.769531 3.96875 3.96875 3.96875.648438 0 1.261719-.15625 1.800781-.429687l18.089844 10.445312c.28125 1.917969 1.925781 3.378907 3.925781 3.378907 2.199219 0 3.96875-1.769532 3.96875-3.96875 0-2.199219-1.769531-3.96875-3.96875-3.96875-.921875 0-1.765625.308593-2.4375.832031l-17.089844-9.863281 17.742188-10.242188c.535156.269531 1.140625.417969 1.785156.417969 2.199219 0 3.96875-1.769531 3.96875-3.96875s-1.769531-3.96875-3.96875-3.96875zm0 0" fill="#fafafa"/></svg>

<?xml version="1.0" encoding="UTF-8"?>
<svg xmlns="http://www.w3.org/2000/svg" xmlns:xlink="http://www.w3.org/1999/xlink" width="48px" height="48px" viewBox="0 0 48 48" version="1.1">
<g id="surface1">
<path style="fill:none;stroke-width:309.921265;stroke-linecap:round;stroke-linejoin:round;stroke:rgb(25.882354%,25.882354%,25.882354%);stroke-opacity:1;stroke-miterlimit:4;" d="M 1440.020041 275.091855 C 1351.367085 275.091855 1280.03531 346.423629 1280.03531 435.076585 C 1280.03531 438.068426 1280.03531 441.060266 1280.192776 444.052107 L 578.842392 849.052822 C 551.600897 827.795009 517.273465 815.040321 479.954192 815.040321 C 391.301236 815.040321 319.969461 886.52956 319.969461 975.182517 C 319.969461 1063.835473 391.301236 1135.167247 479.954192 1135.167247 C 506.093429 1135.167247 530.815479 1128.868636 552.545689 1117.846066 L 1281.767428 1538.908241 C 1293.104929 1616.223696 1359.397815 1675.115713 1440.020041 1675.115713 C 1528.672997 1675.115713 1600.004772 1603.783938 1600.004772 1515.130982 C 1600.004772 1426.478026 1528.672997 1355.146252 1440.020041 1355.146252 C 1402.858233 1355.146252 1368.845732 1367.586009 1341.761702 1388.686358 L 652.851076 991.08651 L 1368.058405 578.21253 C 1389.631149 589.077635 1414.038269 595.061316 1440.020041 595.061316 C 1528.672997 595.061316 1600.004772 523.729541 1600.004772 435.076585 C 1600.004772 346.423629 1528.672997 275.091855 1440.020041 275.091855 Z M 1440.020041 275.091855 " transform="matrix(0.0248071,0,0,0.0248071,0,0)"/>
<path style=" stroke:none;fill-rule:nonzero;fill:rgb(98.039216%,98.039216%,98.039216%);fill-opacity:1;" d="M 35.722656 6.824219 C 33.523438 6.824219 31.753906 8.59375 31.753906 10.792969 C 31.753906 10.867188 31.753906 10.941406 31.757812 11.015625 L 14.359375 21.0625 C 13.683594 20.535156 12.832031 20.21875 11.90625 20.21875 C 9.707031 20.21875 7.9375 21.992188 7.9375 24.191406 C 7.9375 26.390625 9.707031 28.160156 11.90625 28.160156 C 12.554688 28.160156 13.167969 28.003906 13.707031 27.730469 L 31.796875 38.175781 C 32.078125 40.09375 33.722656 41.554688 35.722656 41.554688 C 37.921875 41.554688 39.691406 39.785156 39.691406 37.585938 C 39.691406 35.386719 37.921875 33.617188 35.722656 33.617188 C 34.800781 33.617188 33.957031 33.925781 33.285156 34.449219 L 16.195312 24.585938 L 33.9375 14.34375 C 34.472656 14.613281 35.078125 14.761719 35.722656 14.761719 C 37.921875 14.761719 39.691406 12.992188 39.691406 10.792969 C 39.691406 8.59375 37.921875 6.824219 35.722656 6.824219 Z M 35.722656 6.824219 "/>
</g>
</svg>
